X:1
T:Lorelei
T:Lorelei
T:Lorelei
T:Clara Schumann
T:Heinrich Heine
T:OpenScore (CC0)
T:OpenScore (CC0)
T:OpenScore (CC0)
T:OpenScore (CC0)
T:OpenScore (CC0)
T:OpenScore (CC0)
T:OpenScore (CC0)
C:Clara Schumann
Z:Heinrich Heine
Z:OpenScore (CC0)
%%score 1 { ( 2 5 7 ) | ( 3 4 6 8 ) }
L:1/8
M:12/8
K:Bb
V:1 treble nm="Voice"
V:2 treble nm="Piano"
V:5 treble 
V:7 treble 
V:3 bass 
V:4 bass 
V:6 bass 
V:8 bass 
V:1
"^Schnell" D | G3 G3 z A2 A A A | B3 B3 z2 z c3 | ^c3- c2 c c3!>(! c3!>)! | d6 z6 | z12 | z12 | %7
w: Ich|weiss nicht, was soll es be-|deu- ten dass|ich * so trau- rig|bin;|||
 z12 | z6 z2 z D3 | d3 d2 d c3 B3 | A3 A3 z2 z A3 | B3 (2:3:2B B A3 G3 | A6 z2 z z2 D | %13
w: |Ein|Mär- chen aus al- ten|Zei- ten, das|kommt mir nicht aus dem|Sinn. Die|
!p! G3 G3 A3- A A A | B3 B3 z2 z B3 | B3- B2 B A3 G3 | F6- F3 F3 |!p! F3 (2:3:2e e d3 B3 | %18
w: Luft ist kühl * und es|dun- kelt und|ru- * hig~ fliesst der|Rhein; * Der|Gip- fel des Ber- ges|
 (d3 c3) B z z A3 | B3-!<(! B2 B d3 d3!<)! | f12 | z12 | z12 | z12 | z6 z2 z!p! F3 | %25
w: fun- * kelt im|A- * bend- son- nen-|schein.||||Die|
 G3!<(! A3 B3 c3!<)! |!>(! B3 A3!>)! z2 z A3 | B3!<(! c3 d3 e3!<)! |!>(! c6-!>)! c3 F3 | %29
w: schön- ste Jung- frau|sit- zet dort|o- ben wun- der-|bar; * Ihr|
 F3 (2:3:2F F F3 F3 | F6 F z z F3 | F3!<(! ^F3 G3 A3!<)! | d6- d2 z!mf! D3 | %33
w: gold'- nes Ge- schmei- de|blit- zet, sie|kämmt ihr gold'- nes|Haar. * Sie|
 =E3!<(! (2:3:2^F F G3 A3!<)! |!>(! G3!>)! ^F3 z2 z F3 |!<(! G3 A3 B3 c3!<)! | A6 z6 | z12 | z12 | %39
w: kämmt es mit gold'- nem|Kam- me und|singt ein Lied da-|bei;|||
 z12 | z6 z3 D3 | !>!d6 c3 B3 | A3 !>!D3 !>!D3 (2:3:2D D | B3 (2:3:2B B A3 G3 | A6 z2 z z2 D | %45
w: |Das|hat ei- ne|wun- der- sa- me ge-|wal- ti- ge Me- lo-|dei. Den|
!p! E3 E2 E E3 E3 | D3 D2 z z2 z D3 |!f! G3 G2 G G3 G3 | g12 | z12 | z6 z2 z!mf! c3 | %51
w: Schif- fer im klei- nen|Schif- fe er-|greift es mit wil- dem|Weh;||er|
 c3!<(! c2 c c3 c3!<)! |!>(! c3 E3!>)! z2 z!f! E3 |"^rit.""^rit." c3 c2 c c3 d2 e | d6- d3!p! d3 | %55
w: schaut nicht die Fel- sen-|rif- fe, er|schaut nur hin- auf in die|Höh'. * Ich|
 d3 d2 d d3 (2:3:2d d | d3 d2 z z2 z z2 G | G3 c3 =B3 (2:3:2c c | =B6- B2 z B3 | %59
w: glau- be die~ Wel- len ver|schlin- gen am|En- de Schif- fer und|Kahn; * und|
 c3"_cresc." c2 c ^c3 c3 | d3 d3 z2 z _e3 |!f! d3- d2 d g3- g2 g | ^f6- f3 =f3 | %63
w: das hat mit ih- rem|Sin- gen die|Lo- * re- lei * ge-|tan, * und|
 =e3 (2:3:2_e e d3!>(! d3 | (^c3 =c3)!>)! B3 B3 | (B6!<(! A3) G3 | c6-!<)!!>(! c3 ^F3!>)! | G6 z6 | %68
w: das hat mit ih- rem|Sin- * gen die|Lo- * re-|lei * ge-|tan.|
 z12 | z12 | z12 | z12 | !fermata!z12 |] %73
w: |||||
V:2
 z | z [B,G][B,G] [B,G][B,G][B,G] [DA][DA][DA] [DA][DA][DA] | %2
 z [DB][DB] [DB][DB][DB] [Dc][Dc][Dc] [Dc][Dc][Dc] | %3
 z [=EG^c][EGc] [EBc][EBc][EBc] [EAc][EAc][EAc] [EGc][EGc][EGc] | [D^Fd]6 z2 z D3 | %5
 [Bd]6 [Ac]3 [GB]3 | [FA]6- [FA]3 [DFA]3 | [DGB]6 [DFA]3 [D=EG]3 | [A,DFA]3 D6 D3 | %9
 [Bd]6 [Ac]3 [GB]3 | [FA]6- [FA]3 [DFA]3 | [GB]6 [FA]3 [_EG]3 | [A,D^FA] DD DEE EA,A, A,DD | %13
 z [B,G][B,G] [B,G][B,G][B,G] [DA][DA][DA] [DA][DA][DA] | %14
 z [DB][DB] [DB][DB][DB] [DB][DB][DB] [DB][DB][DB] | %15
 z [EB][EB] [EB][EB][EB] [EA][EA][EA] [EG][EG][EG] | %16
 z [CEF][CEF] [CEF][CEF][CEF] [CEF][CEF][CEF] z [CEF][CEF] | z [CEF][CEF] [CEF][CEF][CEF] x3 F3 | %18
 G3 A3 [FB] z z z [EA][EA] | z [DB][DB] [DB][DB][DB] z [=EB][EB] [EB][EB][EB] | x12 | x12 | x12 | %23
 x12 | x12 | x12 | x12 | x12 | x12 | x12 | x12 | x12 | x12 | x12 | x12 | x12 | [D^FA]6 z2 z D3 | %37
 [Bd]6 [Ac]3 [GB]3 | [FA]6- [DFA]3 [DFA]3 | [DGB]6 [DFA]3 [D=EG]3 | [A,DFA]3 D6 D3 | %41
 [Bd]6 [Ac]3 [GB]3 | [FA]12 | [DGB]6 [DFA]3 [D_EG]3 | [A,D^FA]12 | x12 | x12 | [CG]6- [CG]3 [DG]3 | %48
 [EG]6- [EG]3 [DG]3 | [CG]3- [CG]2 [CG] [CG]3 [DG]3 | [EG]6- [EG]3 G3 | %51
 z [CE][CE] [CE][CE][CE] [CE][CE][CE] z [CE][CE] | %52
 z [A,CE][A,CE] [A,CE][A,CE][A,CE] [A,CE][A,CE][A,CE] [A,CE][A,CE][A,CE] | %53
 z [CE][CE] [CE][CE][CE] z [CE][CE] [CE][CE][CE] | z [A,D] z z2 z z2 z Ddd | %55
 d[^Fc][Fc] [Fc][EA][EA] [EA][CF][CF] [CF]dd | d[^Fc][Fc] [Fc][EA][EA] [EA][CF][CF] [CF]GG | %57
 G[=B,F][B,F] [B,F]DD DB,B, B,GG | G[=B,F][B,F] [B,F][_A,D][A,D] [A,D]B,B, B, z z | %59
 z [^F,A,C][F,A,C] [F,A,C][F,A,C][F,A,C] z [G,B,^C][G,B,C] [G,B,C][G,B,C][G,B,C] | %60
 z [=B,D][B,D] [B,D][B,D][B,D] z [A,CE][A,CE] [A,CE][A,CE][A,CE] | %61
 z [B,D][B,D] [B,D][B,D][B,D] z [G,^CG][G,CG] [G,CG][G,CG][G,CG] | %62
 z [A^f][Af] [Af][Af][Af] [Af][Af][Af] [_A=f][Af][Af] | %63
 z [G=e][Ge] [_G_e][Ge][Ge] [Fd][Fd][Fd] [Fd][Fd][Fd] | %64
 z [=E^c][Ec] [_E=c][Ec][Ec] [DB][DB][DB] [EB][EB][EB] | %65
 [EB][EB][EB] [EB][EB][EB] [CEA][CEA][CEA] [CEA][CEA][CEA] | %66
 z [A,CEG][A,CEG] [A,CEG][A,CEG][A,CEG] [A,CEG][A,CD^F][A,CDF] [A,CDF][A,CDF][A,CDF] | %67
 [G,B,DG] z z z2 z [_A=B]3- [AB][Gc][Fd] | [Ee] z z z2 z [c^f]3- [cf][Bg][Aa] | %69
 [Gd] z z (([Ac^f]3 [Bg])) z z (([^Fe]3 | [Gd])) z z (([Ec]3 [DB])) z z (([C^F]3 | %71
 [B,G]))DD DB,B, B,x x4 | x3 [GBdg] z z !fermata!z6 |] %73
V:3
 z |!p! G,, [D,D][D,D] [D,D][D,D][D,D] [D,^F,][D,F,][D,F,] [D,F,][D,F,][D,F,] | %2
 G,, [D,G,][D,G,] [D,G,][D,G,][D,G,] [D,A,][D,A,][D,A,] [D,A,][D,A,][D,A,] | %3
 G,, [D,B,]!<(![D,B,] [D,G,][D,G,][D,G,]!<)!!>(! [D,A,][D,A,][D,A,] [D,B,][D,B,][D,B,]!>)! | %4
 D,, D,D, D,D,D, D,D,D, D,D,D, |!p! [B,D]6 [A,C]3 [G,B,]3 |!ped! [F,A,]6- [F,A,]3 [F,A,]3!ped-up! | %7
 [G,B,]6 [F,A,]3 [=E,G,]3 | D,, D,D, D,D,D, D,D,D, D,D,D, | !>![B,D]6 [A,C]3 [G,B,]3 | %10
!ped! [F,A,]6- [F,A,]3 [F,A,]3!ped-up! | [G,B,]6 [F,A,]3 [_E,G,]3 | %12
 [D,,D,] D,D,!<(! D,E,E,!<)! E,A,,!>(!A,, A,,D,D,!>)! | %13
!p! G,, [D,D][D,D] [D,D][D,D][D,D] [D,^F,][D,F,][D,F,] [D,F,][D,F,][D,F,] | %14
!<(! G,, [D,G,][D,G,] [D,G,][D,G,][D,G,] [D,G,][D,G,][D,G,]!<)! [D,G,][D,G,][D,G,] | %15
 E,, [E,G,][E,G,]!>(! [E,G,][E,G,][E,G,] [F,A,][F,A,][F,A,] [G,B,][G,B,][G,B,]!>)! | %16
 A,,F,F, F,F,F, F,F,F, A,,F,F, |!p! A,,F,F, F,F,F, B,,F,F, F,F,F, | E,F,F, F,F,F, D,F,F, C,F,F, | %19
 B,,F,F,!<(! F,F,F, G,,F,F, F,F,F, | %20
 (F,,!<)!F,[I:staff -1] [FA])!p![I:staff +1] (A,F[I:staff -1] [cf])[I:staff +1] (A,F[I:staff -1] [cf])[I:staff +1] (=B,F[I:staff -1] [Gdg]) | %21
[I:staff +1] (CF[I:staff -1] [Gce])[I:staff +1] (A,F[I:staff -1] [cf])!<(![I:staff +1] (_B,F[I:staff -1] [Bd])[I:staff +1] (=B,F!<)![I:staff -1] [Gdg]) | %22
!>(![I:staff +1] (CF[I:staff -1] [Gce])[I:staff +1] (A,F[I:staff -1] [cf])[I:staff +1] (_B,!>)!F[I:staff -1] [Bd])[I:staff +1] (G,F[I:staff -1] [Be]) | %23
[I:staff +1] (A,E[I:staff -1] c)[I:staff +1] (^F,D[I:staff -1] [Ad])[I:staff +1] (G,D[I:staff -1] B)[I:staff +1] (=E,C[I:staff -1] [Gc]) | %24
[I:staff +1] (F,C[I:staff -1] [FA])!p![I:staff +1] (A,,F,[I:staff -1] [CF])[I:staff +1] (A,,F,[I:staff -1] [CF])[I:staff +1] (A,,F,[I:staff -1] [CF]) | %25
[I:staff +1] (B,,F,[I:staff -1] [DG])!<(![I:staff +1] (C,F,[I:staff -1] [EA])[I:staff +1] (D,F,[I:staff -1] [FB])[I:staff +1] (E,F,[I:staff -1] [Gc]) | %26
[I:staff +1] (D,!<)!F,!>(![I:staff -1] [FB])[I:staff +1] (C,F,[I:staff -1] [EA])!>)![I:staff +1] (C,F,[I:staff -1] [EA])[I:staff +1] (C,F,[I:staff -1] [EA]) | %27
[I:staff +1] (D,F,[I:staff -1] [FB])[I:staff +1] (A,,!<(!F,[I:staff -1] [Fc])[I:staff +1] ((B,,F,[I:staff -1] [FBd]))[I:staff +1] ((G,,F,[I:staff -1] [EBe]))!<)! | %28
!>(![I:staff +1] (A,,F,[I:staff -1] [Fc])[I:staff +1] (A,[CF][I:staff -1] [cf])!>)![I:staff +1] (A,[CF][I:staff -1] [cf])[I:staff +1] (=B,F[I:staff -1] [Gdg]) | %29
[I:staff +1] (CF[I:staff -1] [Gce])[I:staff +1] (A,F[I:staff -1] [cf])[I:staff +1] (_B,F[I:staff -1] [Bd])[I:staff +1] (=B,F[I:staff -1] [Gdg]) | %30
[I:staff +1] (CF[I:staff -1] [Gce])[I:staff +1] (A,F[I:staff -1] [cf])[I:staff +1] (_B,F[I:staff -1] [Bd])[I:staff +1] (G,F[I:staff -1] [Be]) | %31
[I:staff +1] (A,E[I:staff -1] c)[I:staff +1] (^F,!<(!D[I:staff -1] [Ad])[I:staff +1] (G,D[I:staff -1] [GB])[I:staff +1] (_E,A,[I:staff -1] [Be])!<)! | %32
[I:staff +1] (D,A,[I:staff -1] [^Fd])[I:staff +1] (^F,,D, [A,D]) (F,,D, [A,D])!mf! (F,,D, [A,D]) | %33
 (G,,D, [=B,=E]) (A,,D, [C^F])!<(! (=B,,D,[I:staff -1] [DG])[I:staff +1] (C,D,[I:staff -1] [=EA])!<)! | %34
[I:staff +1] (=B,,!>(!D,[I:staff -1] [DG])[I:staff +1] (A,,!>)!D,[I:staff -1] [C^F])[I:staff +1] (A,,D,[I:staff -1] [CF])[I:staff +1] (A,,D,[I:staff -1] [CF]) | %35
[I:staff +1] (_B,,D,[I:staff -1] [DG])[I:staff +1] (^F,,!<(!D,[I:staff -1] [DA])[I:staff +1] (G,,D,[I:staff -1] [DB])[I:staff +1] ((E,,D,[I:staff -1] [DGc]))!<)! | %36
[I:staff +1] D,, D,D, D,D,D, D,D,D, D,D,D, | [B,D]6 [A,C]3 [G,B,]3 | %38
!ped! [F,A,]6- [F,A,]3 [F,A,]3!ped-up! | [G,B,]6 [F,A,]3 [=E,G,]3 | D,, D,D, D,D,D, D,D,D, D,D,D, | %41
 [B,D]6 [A,C]3 [G,B,]3 | [F,A,]12 | [G,B,]6 [F,A,]3 [_E,G,]3 | D,, D,D, D,D,D, D,D,D, D,D,D, | %45
!p! ((G,,D,[I:staff -1] [B,DE]))[I:staff +1] ((G,,D,[I:staff -1] [B,DE]))[I:staff +1] ((_A,,C,[I:staff -1] [_A,CE]))[I:staff +1] ((G,,C,[I:staff -1] [A,CE])) | %46
[I:staff +1] ((^F,,D,[I:staff -1] [=A,CD]))[I:staff +1] ((F,,D,[I:staff -1] [A,CD]))[I:staff +1] ((G,,D,[I:staff -1] [G,B,D]))[I:staff +1] ((=F,,D,[I:staff -1] [G,B,D])) | %47
!f![I:staff +1] z [G,A,][G,A,] [G,A,][G,A,][G,A,] [G,A,][G,A,][G,A,] z [G,A,][G,A,] | %48
!ped! z [G,A,][G,A,] [G,A,][G,A,][G,A,] [G,A,][G,A,][G,A,] z [G,A,][G,A,] | %49
!ff! z [G,A,][G,A,] [G,A,][G,A,][G,A,] z [G,A,][G,A,] z [G,A,][G,A,] | %50
 z [G,A,][G,A,] [G,A,][G,A,][G,A,] [G,A,][G,A,][G,A,]!mf! z [E,G,C][E,G,C]!ped-up! | %51
 A,,, ^F,F, F,F,F, F,F,F, x G,G, | %52
 ^F,,, [^F,,E,][F,,E,] [F,,E,][F,,E,][F,,E,] [F,,E,][F,,E,][F,,E,] [F,,E,][F,,E,][F,,E,] | %53
 _A,,, ^F,F, F,F,F, x G,G, G,G,G, | [^F,,,^F,,] D,D, D,D,D, D,D,D,!p!!<(! D,D,D,!<)! | %55
 D,EE E!>(!CC CA,!>)!A,!<(! A,D,D, | D,E!<)!E ECC!>(! CA,A,!>)! A,D,,!<(!D,,!<)! | %57
!<(! x3!<)! x!>(! _A,A, A,F,!>)!F,!<(! F, x2 | %58
 D,,!<)! _A,!>(!A, A,F,!>)!F, F,[D,F,][D,F,] [D,F,]D,,D,, | %59
 D,, E,E,"^cresc." E,E,E, D,, =E,E, E,E,E, | %60
!ped! D,, ^E,E, E,E,E,!ped-up!!ped! D,, ^F,F, F,F,F,!ped-up! | %61
!ped! D,, G,G, G,G,G,!ped-up!!ped! D,, [D,=E,G,][D,E,G,] [D,E,G,][D,E,G,][D,E,G,]!ped-up! | %62
!ped! [D,,D,] [D^F][DF] [DF][DF][DF] [DF][DF][DF] [=B,D][B,D][B,D]!ped-up! | %63
 D, [C=E][CE] [A,C][A,C][A,C] [B,D][B,D][B,D] [^G,=B,][G,B,][G,B,] | %64
 D, [A,^C][A,C] [^F,A,][F,A,][F,A,] [G,B,][G,B,][G,B,] [E,G,][E,G,][E,G,] | %65
 [C,G,][C,G,][C,G,] [C,G,][C,G,][C,G,]!<(! [A,,G,][A,,G,][A,,G,] [A,,G,][A,,G,][A,,G,] | %66
 D,,!<)! D,D, D,D,D, D,D,D, D,D,D, | x6 =F3- FED | C6 E3- EDC | x3 (E3 D) x x (([A,C]3 | %70
 D)) x x (([^F,A,]3 B,)) x2 (([E,A,]3 | [D,G,]))!f! x x2 x3 G,G, G,D,D, | %72
 G,, z z [G,B,D] z z !fermata!z6 |] %73
V:4
 x | x12 | x12 | G,,12 | x12 | z D,D, D,D,D, D,D,D, D,D,D, | z D,D, D,D,D, D,D,D, D,D,D, | %7
 z D,D, D,D,D, z D,D, z D,D, | x12 | z D,D, D,D,D, D,D,D, D,D,D, | z D,D, D,D,D, D,D,D, D,D,D, | %11
 z D,D, D,D,D, z D,D, z D,D, | x12 | x12 | x12 | x12 | A,,6- A,,3 A,,3 | A,,6 B,,6 | E,6 D,3 C,3 | %19
 B,,6 G,,6 | x12 | x12 | x12 | x12 | x12 | x12 | x12 | x12 | x12 | x12 | x12 | x12 | x12 | x12 | %34
 x3 A,,3- A,,2 x4 | x12 | x12 | z D,D, D,D,D, D,D,D, D,D,D, | z D,D, D,D,D, D,D,D, z D,D, | %39
 z D,D, D,D,D, z D,D, z D,D, | x12 | z D,D, D,D,D, D,D,D, D,D,D, | z D,D, D,D,D, D,D,D, D,D,D, | %43
 z D,D, D,D,D, z D,D, z D,D, | x12 | x12 | x12 | E,, E,E, E,E,E, E,E,E, D,,D,D, | %48
 C,, [C,E,][C,E,] [C,E,][C,E,][C,E,] [C,E,][C,E,][C,E,] D,,D,D, | E,, E,E, E,E,E, E,E,E, D,,D,D, | %50
 C,, [C,E,][C,E,] [C,E,][C,E,][C,E,] [C,E,][C,E,][C,E,] B,,,[B,,C,][B,,C,] | %51
 x [A,,E,][A,,E,] [A,,E,][A,,E,][A,,E,] [A,,E,][A,,E,][A,,E,] G,,,[G,,E,][G,,E,] | x12 | %53
 x [_A,,E,][A,,E,] [A,,E,][A,,E,][A,,E,] G,,, [G,,E,][G,,E,] [G,,E,][G,,E,][G,,E,] | x12 | %55
 D,6- D,3 x3 | D,6- D,3 x3 | D,, _A,A, A,F,F, F,D,D, D,D,,D,, | x12 | D,,6 D,,6 | D,,6 D,,6 | %61
 D,,6 D,,6 | D,12 | D,12 | D,6- D,3 x3 | x12 | D,,12 | [G,,,G,,]!f! G,G, G,G,G, z G,G, G,3 | %68
 z G,G, G,G,G, z G,G, G,3 | B,G,G, EG,G, DG,G, z G,G, | B,G,G, ^F,G,,G,, G,G,,G,, E,G,,G,,- | %71
 G,, D,D, D,B,,B,, B,,G,,G,, G,,D,,D,, | G,,, z z x x8 |] %73
V:5
 x | x12 | x12 | x12 | x12 | x12 | x6 [DD]3 z x2 | x12 | x12 | x12 | x6 [DD]3 z x2 | x12 | x12 | %13
 x12 | x12 | x12 | x12 | x6 z [B,D][B,D] F[B,D][B,D] | F6 x2 x4 | x12 | x12 | x12 | x12 | x12 | %24
 x12 | x12 | x12 | x12 | x12 | x12 | x12 | x12 | x12 | x12 | x12 | x12 | x12 | x12 | x12 | x12 | %40
 x12 | x12 | z2 z !>!D3 !>!D3 !>!D3 | x12 | z DD DDD DDD DDD | x12 | x12 | x12 | x12 | x12 | x12 | %51
 x12 | x12 | x12 | x6 x3 D3 | x12 | x12 | x12 | x12 | x12 | x12 | x12 | x12 | x12 | x12 | x12 | %66
 x12 | x12 | x12 | x12 | x12 | x12 | x12 |] %73
V:6
 x | x12 | x12 | x12 | x12 | x12 |{/D,,-} D,,12 | x12 | x12 | x12 |{/D,,-} D,,12 | x12 | x12 | %13
 x12 | x12 | x12 | x12 | x12 | x12 | x12 | x12 | x12 | x12 | x12 | x12 | x12 | x12 | x12 | x12 | %29
 x12 | x12 | x12 | x12 | x12 | x12 | x12 | x12 | x12 |{/D,,-} D,,12 | x12 | x12 | x12 | %42
{/D,,-} D,,12 | x12 | x12 | x12 | x12 | x6 x3 D,,3 | x6 x3 D,,3 | x6 x3 D,,3 | x6 x3 B,,,3 | x12 | %52
 x12 | x12 | x12 | x12 | x12 | x12 | x12 | x12 | x ^G,G, G,G,G, x2 x4 | x12 | x12 | x12 | x12 | %65
 x12 | x12 | x12 | x12 | x12 | x12 | x12 | x12 |] %73
V:7
 x | x12 | x12 | x12 | x12 | x12 | x12 | x12 | x12 | x12 | x12 | x12 | x12 | x12 | x12 | x12 | %16
 x12 | x12 | z CC z CC z B,B, x x2 | x12 | x12 | x12 | x12 | x12 | x12 | x12 | x12 | x12 | x12 | %29
 x12 | x12 | x12 | x12 | x12 | x12 | x12 | x12 | x12 | x12 | x12 | x12 | x12 | x12 | x12 | x12 | %45
 x12 | x12 | x12 | x12 | x12 | x12 | x12 | x12 | x12 | x12 | x12 | x12 | x12 | x12 | x12 | x12 | %61
 x12 | x12 | x12 | x12 | x12 | x12 | x12 | x12 | x12 | x12 | x12 | x12 |] %73
V:8
 x | x12 | x12 | x12 | x12 | x12 | x12 | x12 | x12 | x12 | x12 | x12 | x12 | x12 | x12 | x12 | %16
 x12 | x12 | x12 | x12 | x12 | x12 | x12 | x12 | x12 | x12 | x12 | x12 | x12 | x12 | x12 | x12 | %32
 x12 | x12 | x12 | x12 | x12 | x12 | x12 | x12 | x12 | x12 | x12 | x12 | x12 | x12 | x12 | %47
 E,,6- E,,3 x3 | C,,6- C,,3 x3 | E,,6- E,,3 x3 | C,,6- C,,3 x3 | x12 | x12 | x12 | x12 | x12 | %56
 x12 | x12 | x12 | x12 | x12 | x12 | x12 | x12 | x12 | x12 | x12 | x12 | x12 | x12 | x12 | x12 | %72
 x12 |] %73

